X:119
%%etbk:tnset id:42,pos:2,rep:3x,ant:
%%etbk:wsite http://www.thesession.org/tunes/display/3636
%%etbk:pldat 2016-08-02T15:21,2016-07-26T16:12,2015-01-20T17:21,2015-01-18T14:06,2015-01-07T17:29,2015-01-05T19:46,2014-11-25T19:03,2014-06-07T15:09,2014-05-07T15:55,2014-04-27T15:28,2014-03-25T16:46,2014-02-11T17:18,2013-11-23T15:38,2013-05-21T16:08,2013-05-01T16:23
T: Blacksmith's, The
Z: Piano Box Version by Martin Fleischmann
H: Created 2013-02-19 /  Last Modified 2013-02-19
M: 4/4
L: 1/8
R: reel
K: Gmaj
|: "G"!4!d!2!B!1!B!2!B !4!d!2!B!1!G!2!B | dBBB "D"!1!AB!3!c!5!e | "G"!4!dBBB dBGB |1 "D"!3!ccBc !1!ABc!5!e :|2 "D"!3!ccBc !1!AcB!1!A ||
|: "G"!2!GG!4!B!2!G !1!D!2!G!4!B!2!G | !2!GGBG "D"!3!ABcA | "G"!2!GGBG !1!DGBG |1 "D"!3!ccBc !1!AcB!1!A:|2 "D"!3!ccBc !1!ABc!5!e||


